Obsidian-SemiLight/actions/22s/zoom-fit-width.svg

<svg viewBox="0 0 22 22" xmlns="http://www.w3.org/2000/svg"><path d="m6 6v10h10v-10zm1 1h8v8h-8zm-2 2-2 2 2 2zm12 0v4l2-2z" fill="#4d4d4d"/></svg>

<svg xmlns="http://www.w3.org/2000/svg" viewBox="0 0 22 22">
  <defs id="defs3051">
    <style type="text/css" id="current-color-scheme">
      .ColorScheme-Text {
        color:#4d4d4d;
      }
      </style>
  </defs>
 <path 
    style="fill:currentColor;fill-opacity:1;stroke:none" 
	d="M 6 6 L 6 16 L 16 16 L 16 6 L 6 6 z M 7 7 L 15 7 L 15 15 L 7 15 L 7 7 z M 5 9 L 3 11 L 5 13 L 5 9 z M 17 9 L 17 13 L 19 11 L 17 9 z "
	class="ColorScheme-Text"
    />  
</svg>
